X: 221
T:Homo quidam fecit cenam
N: Derived from Jos1904-Homo_quidam_fecit_cenam.krn
C: Josquin des Prez
%%abc-version 2.0
%%abcx-abcm2ps-target-version 5.9.1 (29 Sep 2008)
%%abc-creator hum2abc beta
%%abcx-conversion-date 2019/02/12 16:15:49
%%abc-edited-by Jesse Rodin
%%abc-edited-by Jesse Rodin; Victoria Chang 2011/05/20
%%abcx-initial-encoding-date 2011/05/20/
%%humdrum-veritas 2048267195
%%humdrum-veritas-data 1059921065
%%linebreak <none>
%%barnumbers 0
L: 1/4
M: 2/1
Q: 1/2=120
V: 1 clef=treble
V: 2 clef=treble-8
V: 3 clef=treble-8
V: 4 clef=treble-8
V: 5 clef=bass
K: C
[V:1] c8- | 
[V:2] c8 | 
[V:3] z8 | 
[V:4] z8 | 
[V:5] z8 | 
[V:1] c8 | 
[V:2] c6BA | 
[V:3] z8 | 
[V:4] z8 | 
[V:5] z8 | 
[V:1] d8 | 
[V:2] B2G3AB2 | 
[V:3] z8 | 
[V:4] z8 | 
[V:5] z8 | 
[V:1] c8- | 
[V:2] c8 | 
[V:3] z8 | 
[V:4] z8 | 
[V:5] C8 | 
[V:1] c8 | 
[V:2] z8 | 
[V:3] z8 | 
[V:4] z8 | 
[V:5] C6B,A, | 
[V:1] d8 | 
[V:2] z8 | 
[V:3] z8 | 
[V:4] z8 | 
[V:5] B,2G,3A,B,2 | 
[V:1] e4g4- | 
[V:2] g8- | 
[V:3] c8 | 
[V:4] z8 | 
[V:5] C8 | 
[V:1] g2fed2g2 | 
[V:2] g4G4 | 
[V:3] d8 | 
[V:4] G8 | 
[V:5] z8 | 
[V:1] f2e4dc | 
[V:2] c3de3f | 
[V:3] c8 | 
[V:4] A8 | 
[V:5] z8 | 
[V:1] B8- | 
[V:2] g4G4- | 
[V:3] z8 | 
[V:4] G8 | 
[V:5] z8 | 
[V:1] B8 | 
[V:2] G2A2B4 | 
[V:3] d8 | 
[V:4] z8 | 
[V:5] z8 | 
[V:1] z4c4 | 
[V:2] c8 | 
[V:3] e8 | 
[V:4] A8 | 
[V:5] z2C4B,A, | 
[V:1] d3ef2g2- | 
[V:2] z8 | 
[V:3] z8 | 
[V:4] B8 | 
[V:5] G,3F,D,2G,2 | 
[V:1] gfe4dc | 
[V:2] c3defg2- | 
[V:3] c8 | 
[V:4] z8 | 
[V:5] C,8 | 
[V:1] B2c4B2 | 
[V:2] g6g2- | 
[V:3] d8 | 
[V:4] G8 | 
[V:5] z8 | 
[V:1] c2e4dc | 
[V:2] g2^fe^f4 | 
[V:3] c8 | 
[V:4] A8 | 
[V:5] z8 | 
[V:1] B8 | 
[V:2] g8 | 
[V:3] z8 | 
[V:4] G8 | 
[V:5] z4G,4 | 
[V:1] A4c4- | 
[V:2] z8 | 
[V:3] f8 | 
[V:4] z8 | 
[V:5] A,2F,4E,D, | 
[V:1] c2BAG4 | 
[V:2] z8 | 
[V:3] e8 | 
[V:4] c8 | 
[V:5] C,8 | 
[V:1] z4d4 | 
[V:2] z8 | 
[V:3] d8 | 
[V:4] B8 | 
[V:5] G,8 | 
[V:1] e4c4- | 
[V:2] c6de | 
[V:3] z8 | 
[V:4] A8 | 
[V:5] z8 | 
[V:1] c2def4 | 
[V:2] f4d4 | 
[V:3] f8 | 
[V:4] z8 | 
[V:5] z8 | 
[V:1] e4g4- | 
[V:2] e2c4BA | 
[V:3] g8 | 
[V:4] c8 | 
[V:5] z8 | 
[V:1] g2fed4 | 
[V:2] G8 | 
[V:3] z8 | 
[V:4] d8 | 
[V:5] z4G,4 | 
[V:1] c4f4 | 
[V:2] c4d4 | 
[V:3] a8 | 
[V:4] z8 | 
[V:5] A,2F,4E,D, | 
[V:1] g4e4 | 
[V:2] B4c4 | 
[V:3] g8 | 
[V:4] e8 | 
[V:5] E,4C,4 | 
[V:1] z2f4ed | 
[V:2] A4B4 | 
[V:3] f8 | 
[V:4] d8 | 
[V:5] D,4B,,4 | 
[V:1] e4g4- | 
[V:2] G2c4BA | 
[V:3] e8 | 
[V:4] c8 | 
[V:5] C,8 | 
[V:1] g2fed2d2- | 
[V:2] G8 | 
[V:3] z8 | 
[V:4] B8 | 
[V:5] z8 | 
[V:1] d2cBA4 | 
[V:2] z8 | 
[V:3] f8 | 
[V:4] z8 | 
[V:5] z8 | 
[V:1] G2e3dc2- | 
[V:2] z4g4- | 
[V:3] c8 | 
[V:4] c8 | 
[V:5] z8 | 
[V:1] c2BAB4 | 
[V:2] g2f2d2g2- | 
[V:3] d8 | 
[V:4] G8 | 
[V:5] z8 | 
[V:1] z2e3dc2- | 
[V:2] g2^fe^f4 | 
[V:3] c8 | 
[V:4] A8 | 
[V:5] z4C4 | 
[V:1] c2BAB4 | 
[V:2] g8 | 
[V:3] z8 | 
[V:4] G8 | 
[V:5] D4D4 | 
[V:1] c8 | 
[V:2] z8 | 
[V:3] c8 | 
[V:4] z8 | 
[V:5] [M:2/1](3:2:6E3DE2C2A,2C2 | 
[V:1] z8 | 
[V:2] z8 | 
[V:3] G8 | 
[V:4] G8 | 
[V:5] (3:2:6B,3CD2G,3A,_B,2 | 
[V:1] z8 | 
[V:2] z4f4 | 
[V:3] A8 | 
[V:4] D8 | 
[V:5] (3:2:6F,3G,A,2D,2F,3E, | 
[V:1] G6A2 | 
[V:2] e4g4- | 
[V:3] c8 | 
[V:4] E8 | 
[V:5] [M:2/1]C,8 | 
[V:1] B2c2d4 | 
[V:2] g2fed4 | 
[V:3] z8 | 
[V:4] G8 | 
[V:5] z8 | 
[V:1] z2d4B2 | 
[V:2] z8 | 
[V:3] G8 | 
[V:4] z8 | 
[V:5] z4G,4 | 
[V:1] d3cA4 | 
[V:2] z4f4 | 
[V:3] A8 | 
[V:4] D8 | 
[V:5] F,2D,2F,3E, | 
[V:1] G8 | 
[V:2] e2g4f2 | 
[V:3] c8 | 
[V:4] E8 | 
[V:5] C,6D,2 | 
[V:1] z4d4 | 
[V:2] e2dcB4 | 
[V:3] z8 | 
[V:4] G8 | 
[V:5] E,2F,2G,4 | 
[V:1] e2c2d2B2- | 
[V:2] c4G4 | 
[V:3] e4d4 | 
[V:4] z8 | 
[V:5] z8 | 
[V:1] Bcd2e2c2- | 
[V:2] z8 | 
[V:3] d4c4 | 
[V:4] B4A4 | 
[V:5] z8 | 
[V:1] c2BAB4 | 
[V:2] z8 | 
[V:3] z4g4- | 
[V:4] A4G4 | 
[V:5] F,4G,4 | 
[V:1] z8 | 
[V:2] G4A4 | 
[V:3] g4f4 | 
[V:4] z4d4- | 
[V:5] E,4D,4 | 
[V:1] z8 | 
[V:2] B4c3B | 
[V:3] g4e4 | 
[V:4] d4c4 | 
[V:5] G,4A,4 | 
[V:1] d6cB | 
[V:2] G4z2d2 | 
[V:3] d8 | 
[V:4] d4B4 | 
[V:5] B,4G,4 | 
[V:1] c2e4dc | 
[V:2] e2c2e2f2 | 
[V:3] c8 | 
[V:4] A8 | 
[V:5] z8 | 
[V:1] B4z2g2 | 
[V:2] g4z2G2 | 
[V:3] d8 | 
[V:4] G8 | 
[V:5] z8 | 
[V:1] f2e4dc | 
[V:2] c3de2f2 | 
[V:3] c8 | 
[V:4] A8 | 
[V:5] z8 | 
[V:1] B2c4B2 | 
[V:2] g3fd4 | 
[V:3] z8 | 
[V:4] G8 | 
[V:5] z8 | 
[V:1] c8 | 
[V:2] c8 | 
[V:3] z8 | 
[V:4] z8 | 
[V:5] C,6D,2 | 
[V:1] z8 | 
[V:2] G6A2 | 
[V:3] z8 | 
[V:4] z8 | 
[V:5] E,2F,2G,4- | 
[V:1] z8 | 
[V:2] B2c2d4 | 
[V:3] z8 | 
[V:4] z8 | 
[V:5] G,2A,2B,4 | 
[V:1] z8 | 
[V:2] e2g3fd2 | 
[V:3] z8 | 
[V:4] z8 | 
[V:5] C6B,2 | 
[V:1] z8 | 
[V:2] c2e3dc2 | 
[V:3] z8 | 
[V:4] z8 | 
[V:5] A,4A,4 | 
[V:1] z8 | 
[V:2] B2d3cA2 | 
[V:3] z8 | 
[V:4] z8 | 
[V:5] G,4F,4 | 
[V:1] z8 | 
[V:2] G2c4B2 | 
[V:3] z8 | 
[V:4] z8 | 
[V:5] E,2C,2D,4 | 
[V:1] c6BA | 
[V:2] c8 | 
[V:3] c4g4 | 
[V:4] z8 | 
[V:5] C,8 | 
[V:1] B4A4 | 
[V:2] z8 | 
[V:3] z4f4 | 
[V:4] G4d4 | 
[V:5] G,4z4 | 
[V:1] z2B2c2A2- | 
[V:2] z8 | 
[V:3] g4a4 | 
[V:4] z4c4 | 
[V:5] G,4F,3E, | 
[V:1] A2GFE2e2- | 
[V:2] F4c4- | 
[V:3] f4g4 | 
[V:4] d4e4 | 
[V:5] D,4C,4 | 
[V:1] edc2B4 | 
[V:2] c2BAB2G2- | 
[V:3] e4d4 | 
[V:4] c4d4 | 
[V:5] z2C,2G,4 | 
[V:1] d4c3B | 
[V:2] GAB2c4 | 
[V:3] z4z2c2 | 
[V:4] B4A4 | 
[V:5] z2G,2A,4 | 
[V:1] AGA3GG2- | 
[V:2] z8 | 
[V:3] d4c4 | 
[V:4] z4z2G2 | 
[V:5] F,2D,2E,4 | 
[V:1] G2^F2G4 | 
[V:2] d4B4 | 
[V:3] z4z2d2 | 
[V:4] A4G4 | 
[V:5] D,4z2G,2 | 
[V:1] z8 | 
[V:2] c8 | 
[V:3] f4e4 | 
[V:4] z4z2A2 | 
[V:5] F,4C3B, | 
[V:1] z4z2d2- | 
[V:2] e4g3f | 
[V:3] c4z4 | 
[V:4] c4B4 | 
[V:5] A,4G,4 | 
[V:1] dcBAcBAG | 
[V:2] d4c4 | 
[V:3] z2G2A4- | 
[V:4] G4z4 | 
[V:5] z8 | 
[V:1] ^F3EG4 | 
[V:2] z8 | 
[V:3] A4G4 | 
[V:4] z2D2E4- | 
[V:5] z8 | 
[V:1] z4z2A2 | 
[V:2] z2g4f2 | 
[V:3] z2c2d4- | 
[V:4] E4D4 | 
[V:5] G,4A,4 | 
[V:1] B4c4- | 
[V:2] g4e4 | 
[V:3] d4c4 | 
[V:4] z2G2A4- | 
[V:5] G,4z4 | 
[V:1] c2BAB3c | 
[V:2] f4g4 | 
[V:3] z4z2d2 | 
[V:4] A4G4 | 
[V:5] z2C2D4 | 
[V:1] d4e2e2- | 
[V:2] z8 | 
[V:3] f4e4 | 
[V:4] z4z2A2 | 
[V:5] D4C3B, | 
[V:1] e2c2d4 | 
[V:2] z4g4- | 
[V:3] c4z4 | 
[V:4] c4B4 | 
[V:5] A,4G,4 | 
[V:1] B3cd4- | 
[V:2] g4G4 | 
[V:3] g8 | 
[V:4] G4z4 | 
[V:5] z2G,4F,E, | 
[V:1] d2f4ed | 
[V:2] A4B4 | 
[V:3] f8 | 
[V:4] d8 | 
[V:5] D,4B,,4 | 
[V:1] e2g3fe2 | 
[V:2] G4c4 | 
[V:3] e4c4 | 
[V:4] c8 | 
[V:5] C,8 | 
[V:1] d4z2g2 | 
[V:2] B2G3AB2 | 
[V:3] d8 | 
[V:4] B4G4 | 
[V:5] G,3A,B,2G,2 | 
[V:1] f2e4dc | 
[V:2] A2c3de2 | 
[V:3] c8 | 
[V:4] A8 | 
[V:5] C3DE2C2 | 
[V:1] B3cd2e2- | 
[V:2] d2g6- | 
[V:3] z8 | 
[V:4] G8 | 
[V:5] D4z2G,2 | 
[V:1] edc4B2 |]  
[V:2] g2fed4 |]  
[V:3] z8 |]  
[V:4] z8 |]  
[V:5] E,2F,2G,4 |]  
[V:1] [M:2/1]c8 [I:setbarnb 86]| 
[V:2] [M:2/1]c8 | 
[V:3] [M:2/1]c8 | 
[V:4] [M:2/1]G8 | 
[V:5] [M:2/1]C,8 | 
[V:1] z8 | 
[V:2] z8 | 
[V:3] z8 | 
[V:4] z8 | 
[V:5] C,6B,,2 | 
[V:1] z8 | 
[V:2] z8 | 
[V:3] z8 | 
[V:4] z8 | 
[V:5] C,4D,4 | 
[V:1] z8 | 
[V:2] c6B2 | 
[V:3] z8 | 
[V:4] z8 | 
[V:5] E,6D,2 | 
[V:1] z8 | 
[V:2] c4d4 | 
[V:3] z8 | 
[V:4] z8 | 
[V:5] E,4F,4 | 
[V:1] z8 | 
[V:2] e6d2 | 
[V:3] z8 | 
[V:4] z8 | 
[V:5] E,2G,4F,2 | 
[V:1] z8 | 
[V:2] e4f4 | 
[V:3] z8 | 
[V:4] z8 | 
[V:5] E,2C,2D,4 | 
[V:1] z8 | 
[V:2] e2g4f2 | 
[V:3] z8 | 
[V:4] z8 | 
[V:5] E,3F,G,2A,2 | 
[V:1] z8 | 
[V:2] e2c2d4 | 
[V:3] z8 | 
[V:4] z8 | 
[V:5] G,2C4B,2 | 
[V:1] z4E4 | 
[V:2] e4z4 | 
[V:3] c8 | 
[V:4] z8 | 
[V:5] C8 | 
[V:1] D2F4ED | 
[V:2] z8 | 
[V:3] d8 | 
[V:4] z8 | 
[V:5] z8 | 
[V:1] C8 | 
[V:2] z4e4 | 
[V:3] e8 | 
[V:4] c8 | 
[V:5] z8 | 
[V:1] z8 | 
[V:2] d2f4ed | 
[V:3] z8 | 
[V:4] d8 | 
[V:5] z8 | 
[V:1] z8 | 
[V:2] c8 | 
[V:3] z8 | 
[V:4] e8 | 
[V:5] z4E,4 | 
[V:1] z8 | 
[V:2] z8 | 
[V:3] f8 | 
[V:4] z8 | 
[V:5] D,2F,4E,D, | 
[V:1] z4E4 | 
[V:2] z8 | 
[V:3] e4c4 | 
[V:4] z8 | 
[V:5] C,8 | 
[V:1] D2F4ED | 
[V:2] z8 | 
[V:3] d8 | 
[V:4] f8 | 
[V:5] z8 | 
[V:1] C2G4E2 | 
[V:2] z4e4 | 
[V:3] e8 | 
[V:4] e4c4 | 
[V:5] z8 | 
[V:1] FEDCB,3A, | 
[V:2] d2f4ed | 
[V:3] z8 | 
[V:4] d8 | 
[V:5] z8 | 
[V:1] C8 | 
[V:2] c2g4fe | 
[V:3] z8 | 
[V:4] e8 | 
[V:5] z4E,4 | 
[V:1] z8 | 
[V:2] fedcB3A | 
[V:3] f8 | 
[V:4] z8 | 
[V:5] D,4D,4 | 
[V:1] z8 | 
[V:2] c8 | 
[V:3] e4c4 | 
[V:4] z8 | 
[V:5] C,2C3DE2 | 
[V:1] z8 | 
[V:2] z4d4 | 
[V:3] d8 | 
[V:4] f8 | 
[V:5] FEDCB,3A, | 
[V:1] z2G2A2c2- | 
[V:2] e4f4 | 
[V:3] c8 | 
[V:4] e4c4 | 
[V:5] C4A,4 | 
[V:1] c2BAB4 | 
[V:2] g8- | 
[V:3] z8 | 
[V:4] d8 | 
[V:5] G,8 | 
[V:1] c8 | 
[V:2] g8 | 
[V:3] z8 | 
[V:4] c8 | 
[V:5] C,8 | 
[V:1] z8 | 
[V:2] f4e2g2 | 
[V:3] d4c4 | 
[V:4] z8 | 
[V:5] z4z2E,2 | 
[V:1] z8 | 
[V:2] f3ec4 | 
[V:3] d4e4 | 
[V:4] z8 | 
[V:5] D,2B,,2C,2E,2 | 
[V:1] z2F2E2G2 | 
[V:2] z8 | 
[V:3] z8 | 
[V:4] d4c4 | 
[V:5] D,2B,,2C,2E,2 | 
[V:1] F3EC4 | 
[V:2] z4z2g2 | 
[V:3] z4g4 | 
[V:4] d4e4 | 
[V:5] D,2B,,2C,4 | 
[V:1] z4z2G2 | 
[V:2] f2d2e4 | 
[V:3] a4g2e2 | 
[V:4] z8 | 
[V:5] z2F,2E,2C,2 | 
[V:1] F2D2E4 | 
[V:2] z4z2g2 | 
[V:3] f4e4 | 
[V:4] z4g4 | 
[V:5] D,2B,,2C,4 | 
[V:1] z4z2G2 | 
[V:2] f2d2e4 | 
[V:3] z8 | 
[V:4] a4g2e2 | 
[V:5] z2F,2E,2C,2 | 
[V:1] F2D2E2G2- | 
[V:2] d4c4 | 
[V:3] z4e4 | 
[V:4] f4e4 | 
[V:5] D,2B,,2C,4 | 
[V:1] G2FEF3E | 
[V:2] z8 | 
[V:3] c4d4 | 
[V:4] z8 | 
[V:5] z8 | 
[V:1] C4z4 | 
[V:2] z4z2g2 | 
[V:3] e8 | 
[V:4] z4e4 | 
[V:5] z8 | 
[V:1] z8 | 
[V:2] e2g2f3e | 
[V:3] z4f4 | 
[V:4] c4d4 | 
[V:5] z8 | 
[V:1] z4G3A | 
[V:2] c4z4 | 
[V:3] e2g3fe2- | 
[V:4] e8 | 
[V:5] C,4G,4- | 
[V:1] B2c2d4 | 
[V:2] z8 | 
[V:3] e2dcB3A | 
[V:4] z4f4 | 
[V:5] G,2F,E,D,4 | 
[V:1] e8 | 
[V:2] g8 | 
[V:3] c2e3fg2- | 
[V:4] e2g3fe2- | 
[V:5] C,3D,E,2C,2 | 
[V:1] z4d4 | 
[V:2] g4g4 | 
[V:3] g2fed4 | 
[V:4] e2dcB3A | 
[V:5] E,2F,2G,4 | 
[V:1] e2g3fe2 | 
[V:2] e2c2e3f | 
[V:3] c8 | 
[V:4] c2e3fg2- | 
[V:5] C,4z2C,2 | 
[V:1] fedcB3A | 
[V:2] g4z2g2 | 
[V:3] g8- | 
[V:4] g2fed4 | 
[V:5] E,2F,2G,4 | 
[V:1] c8- | 
[V:2] e2c2e3f | 
[V:3] g8- | 
[V:4] c8- | 
[V:5] C,8- | 
[V:1] c8 ||  
[V:2] g8 ||  
[V:3] g8 ||  
[V:4] c8 ||  
[V:5] C,8 ||  
[V:1] [M:2/1]c6BA ||  
[V:2] [M:2/1]z8 ||  
[V:3] [M:2/1]c4g4 ||  
[V:4] [M:2/1]z8 ||  
[V:5] [M:2/1]C,8 ||  



